dist/img/sprites/header_star.svg

<svg width="32" height="32" viewBox="0 0 32 32" fill="none" xmlns="http://www.w3.org/2000/svg">
<path d="M15.573 0.379298C15.6331 -0.126433 16.3669 -0.126433 16.427 0.379298L16.9304 4.62192C17.5804 10.1003 21.8997 14.4196 27.378 15.0696L31.6207 15.573C32.1264 15.6331 32.1264 16.3669 31.6207 16.427L27.378 16.9304C21.8997 17.5804 17.5804 21.8997 16.9304 27.378L16.427 31.6207C16.3669 32.1264 15.6331 32.1264 15.573 31.6207L15.0696 27.378C14.4196 21.8997 10.1003 17.5804 4.62192 16.9304L0.379298 16.427C-0.126433 16.3669 -0.126433 15.6331 0.379298 15.573L4.62192 15.0696C10.1003 14.4196 14.4196 10.1003 15.0696 4.62192L15.573 0.379298Z" fill="#23272A"/>
</svg>

<svg width="32" height="32" viewBox="0 0 32 32" fill="none" xmlns="http://www.w3.org/2000/svg"><path d="M15.573.38c.06-.506.794-.506.854 0l.503 4.242A11.937 11.937 0 0027.378 15.07l4.243.503c.505.06.505.794 0 .854l-4.243.503A11.937 11.937 0 0016.93 27.378l-.503 4.243c-.06.505-.794.505-.854 0l-.503-4.243A11.937 11.937 0 004.622 16.93l-4.243-.503c-.505-.06-.505-.794 0-.854l4.243-.503A11.937 11.937 0 0015.07 4.622l.503-4.243z" fill="#23272A"/></svg>
